!!!SOCIAL_FUNCTION:	dream songs
!!!PDT:	1913
!!!OTL: No_140_Carried_Around_the_Sky.krn
!!!REG: Great_Lakes
!!!LANG: Non-Tone
!!!LING_GROUP: Algonquin
**kern	**kern
*staff2	*staff1
*clefF4	*clefF4
*k[f#]	*k[f#]
*M2/4	*M2/4
8r	16d\LL
.	16d\JJ
=1	=1
12GG^/	4.d\
12r	.
12GG/	.
12GG^/	.
12r	.
.	8d\
12GG/	.
=2	=2
2r	4d\
.	8.B\L
.	16B\Jk
=3||	=3||
*M3/4	*M3/4
2.r	[2d\
.	8d\L]
.	16d\L
.	16d\JJ
=4||	=4||
*M2/4	*M2/4
2r	4.d\
.	8d\
=5	=5
2r	4d\
.	8.B\L
.	16B\Jk
=6||	=6||
*M3/4	*M3/4
2.r	[2B\
.	8B\L]
.	16B\L
.	16B\JJ
=7||	=7||
*M2/4	*M2/4
2r	4.B\
.	8B\
=8	=8
2r	4B\
.	8.A#\L
.	16B\Jk
=9||	=9||
*M3/4	*M3/4
2.r	[2G\
.	8G\L]
.	16G\L
.	16G\JJ
=10||	=10||
*M2/4	*M2/4
2r	4.G\
.	8G\
=11	=11
2r	4G\
.	8.E\L
.	16E\Jk
=12||	=12||
*M3/4	*M3/4
2.r	[2G\
.	8G\L]
.	16G\L
.	16G\JJ
=13||	=13||
*M2/4	*M2/4
2r	4.G\
.	8G\
=14	=14
2r	4G\
.	8.E\L
.	16E\Jk
=15||	=15||
*M3/4	*M3/4
2.r	[2D\
.	8D\L]
.	16D\L
.	16D\JJ
=16||	=16||
*M2/4	*M2/4
2r	4.D\
.	8D\
=17	=17
2r	4D\
.	8.BB/L
.	16BB/Jk
=18||	=18||
*M3/4	*M3/4
2.r	[2D\
.	8D\L]
.	16D\L
.	16D\JJ
=19||	=19||
*M2/4	*M2/4
2r	4.D\
.	8D\
=20	=20
2r	4D\
.	8.BB/L
.	16BB/Jk
=21	=21
2r	4.BB/
.	8r
==	==
*-	*-
